src/static/logos/youtrack.svg

<?xml version="1.0" encoding="UTF-8" standalone="no"?>
<svg width="256px" height="256px" viewBox="0 0 256 256" version="1.1" xmlns="http://www.w3.org/2000/svg" xmlns:xlink="http://www.w3.org/1999/xlink" preserveAspectRatio="xMidYMid">
    <defs>
        <linearGradient x1="65.7970456%" y1="66.6866128%" x2="2.10470459%" y2="5.57397386%" id="linearGradient-1">
            <stop stop-color="#905CFB" offset="0%"></stop>
            <stop stop-color="#A554E6" offset="7%"></stop>
            <stop stop-color="#D641B5" offset="25%"></stop>
            <stop stop-color="#F43597" offset="39%"></stop>
            <stop stop-color="#FF318C" offset="47%"></stop>
        </linearGradient>
    </defs>
	<g>
		<path d="M83.6107669,98.1951254 C125.956259,59.5662195 172.999423,16.5034988 174.362261,15.1406612 C176.482791,12.9814044 178.754989,10.9765235 181.161478,9.14135256 C199.029815,-4.02800297 223.685416,-2.85898975 240.227581,11.941895 C256.769746,26.7427798 260.662648,51.1171627 249.553596,70.334301 C247.543353,73.8609563 245.053197,77.0914287 242.154449,79.9331948 C232.755532,89.3321117 196.75968,127.52771 196.75968,127.52771 C196.75968,127.52771 243.954242,172.922479 244.754149,173.52241 C256.450203,182.890563 259.438309,199.453211 251.753343,212.317939 C247.148833,219.91217 239.499035,225.157745 230.755763,226.71628 C228.157586,227.174782 193.841147,194.145434 155.943952,167.422006 C131.986178,194.300464 84.3223529,247.753856 84.1726541,247.753856 C63.9349862,261.912224 39.1778391,254.113123 27.9791296,247.953833 C12.4397548,238.880821 2.15872837,222.941213 0.301747202,205.043075 C-1.55523396,187.144938 5.23447556,169.434194 18.5802127,157.364272 C25.1794522,151.364963 53.176226,125.96789 83.5727232,98.1710932 L83.6107669,98.1951254 Z" fill="#0CB0F2"></path>
		<path d="M167.802009,111.987903 C166.432513,102.611562 161.45627,94.1404422 153.933232,88.3789144 L80.2202759,13.784129 C67.7425663,1.28876913 49.3116161,-3.15377087 32.5112416,2.2844889 C15.710867,7.72274867 3.37932623,22.1230677 0.590700461,39.5601208 C-2.19792531,56.9971739 5.02747487,74.5251424 19.2938526,84.9317615 L108.278497,147.06068 C120.30609,156.415937 136.826294,157.479716 149.9544,149.7443 C163.082505,142.008884 170.157245,127.04236 167.802009,111.987903 L167.802009,111.987903 Z" fill="url(#linearGradient-1)"></path>
		<rect fill="#000000" x="47.8545287" y="48.7631944" width="159.382277" height="159.382277"></rect>
		<path d="M63.9919842,175.87056 L122.365743,175.87056 L122.365743,186.429636 L63.9919842,186.429636 L63.9919842,175.87056 Z M85.3093637,111.918422 L58.4136045,69.6821183 L76.3441107,69.6821183 L93.0792497,97.7732446 L110.013617,69.6821183 L127.505822,69.6821183 L100.610062,111.719194 L100.610062,139.611092 L85.2695182,139.611092 L85.2695182,111.918422 L85.3093637,111.918422 Z M151.054553,83.8272953 L129.737173,83.8272953 L129.737173,69.6821183 L187.513249,69.6821183 L187.513249,83.8272953 L166.395097,83.8272953 L166.395097,139.411864 L151.054553,139.411864 L151.054553,83.8272953 Z" fill="#FFFFFF"></path>
	</g>
</svg>

<svg width="256" height="256" xmlns="http://www.w3.org/2000/svg" preserveAspectRatio="xMidYMid"><defs><linearGradient x1="65.797%" y1="66.687%" x2="2.105%" y2="5.574%" id="a"><stop stop-color="#905CFB" offset="0%"/><stop stop-color="#A554E6" offset="7%"/><stop stop-color="#D641B5" offset="25%"/><stop stop-color="#F43597" offset="39%"/><stop stop-color="#FF318C" offset="47%"/></linearGradient></defs><path d="M83.61 98.195c42.346-38.629 89.39-81.692 90.752-83.054a63.493 63.493 0 016.8-6c17.868-13.169 42.523-12 59.066 2.8 16.542 14.802 20.435 39.176 9.326 58.393a43.855 43.855 0 01-7.4 9.6c-9.398 9.398-45.394 47.594-45.394 47.594s47.194 45.394 47.994 45.994c11.696 9.369 14.684 25.931 7 38.796a30.896 30.896 0 01-20.998 14.398c-2.598.459-36.915-32.57-74.812-59.294-23.958 26.878-71.622 80.332-71.771 80.332-20.238 14.158-44.995 6.36-56.194.2a56.433 56.433 0 01-9.399-90.59c6.6-5.999 34.596-31.396 64.993-59.193l.038.024z" fill="#0CB0F2"/><path d="M167.802 111.988a36.355 36.355 0 00-13.869-23.61L80.22 13.785a46.977 46.977 0 10-60.926 71.148l88.984 62.129a37.157 37.157 0 0059.524-35.073z" fill="url(#a)"/><path d="M47.855 48.763h159.382v159.382H47.855z"/><path d="M63.992 175.87h58.374v10.56H63.992v-10.56zm21.317-63.952L58.414 69.682h17.93L93.08 97.773l16.935-28.09h17.492l-26.896 42.036v27.892H85.27v-27.693h.04zm65.746-28.09h-21.318V69.681h57.776v14.145h-21.118v55.585h-15.34V83.827z" fill="#FFF"/></svg>
